icons/evolvere-blue-folders-flat-vivid-dark-fallback/apps/64/amarok.svg

<?xml version="1.0" encoding="UTF-8" standalone="no"?>
<!-- Created with Inkscape (http://www.inkscape.org/) -->

<svg
   xmlns:dc="http://purl.org/dc/elements/1.1/"
   xmlns:cc="http://creativecommons.org/ns#"
   xmlns:rdf="http://www.w3.org/1999/02/22-rdf-syntax-ns#"
   xmlns:svg="http://www.w3.org/2000/svg"
   xmlns="http://www.w3.org/2000/svg"
   xmlns:sodipodi="http://sodipodi.sourceforge.net/DTD/sodipodi-0.dtd"
   xmlns:inkscape="http://www.inkscape.org/namespaces/inkscape"
   width="64"
   height="64"
   id="svg13094"
   version="1.1"
   inkscape:version="0.91+devel r"
   sodipodi:docname="amarok.svg">
  <sodipodi:namedview
     id="base"
     pagecolor="#ffffff"
     bordercolor="#666666"
     borderopacity="1.0"
     inkscape:pageopacity="0"
     inkscape:pageshadow="2"
     inkscape:zoom="11.313709"
     inkscape:cx="16.153127"
     inkscape:cy="32.948139"
     inkscape:document-units="px"
     inkscape:current-layer="svg13094"
     showgrid="true"
     inkscape:snap-bbox="true"
     inkscape:bbox-paths="true"
     inkscape:bbox-nodes="true"
     inkscape:snap-bbox-edge-midpoints="true"
     inkscape:snap-bbox-midpoints="true"
     inkscape:object-paths="true"
     inkscape:snap-intersection-paths="true"
     inkscape:object-nodes="true"
     inkscape:snap-smooth-nodes="true"
     inkscape:snap-midpoints="true"
     inkscape:snap-object-midpoints="true"
     inkscape:snap-center="true"
     showguides="true"
     inkscape:guide-bbox="true"
     inkscape:window-width="1920"
     inkscape:window-height="1023"
     inkscape:window-x="-10"
     inkscape:window-y="35"
     inkscape:window-maximized="1"
     inkscape:snap-global="true"
     fit-margin-top="0"
     fit-margin-left="0"
     fit-margin-right="0"
     fit-margin-bottom="0"
     showborder="true"
     inkscape:showpageshadow="false"
     inkscape:snap-page="true">
    <inkscape:grid
       type="xygrid"
       id="grid3075"
       empspacing="5"
       visible="true"
       enabled="true"
       snapvisiblegridlinesonly="true"
       originx="1.6362304e-08px"
       originy="18px" />
  </sodipodi:namedview>
  <defs
     id="defs13096" />
  <metadata
     id="metadata13099">
    <rdf:RDF>
      <cc:Work
         rdf:about="">
        <dc:format>image/svg+xml</dc:format>
        <dc:type
           rdf:resource="http://purl.org/dc/dcmitype/StillImage" />
        <dc:title></dc:title>
      </cc:Work>
    </rdf:RDF>
  </metadata>
  <path
     style="color:#000000;fill:#0f77ec;fill-opacity:1;fill-rule:nonzero;stroke:none;stroke-width:2.28571415;marker:none;visibility:visible;display:inline;overflow:visible;enable-background:accumulate"
     d="M 0 4 L 0 34 L 0 62 L 2 64 L 32 64 L 62 64 L 64 62 L 64 34 L 64 4 L 32 4 L 0 4 z "
     id="path6498" />
  <path
     style="color:#000000;fill:#43b1ff;fill-opacity:1;fill-rule:nonzero;stroke:none;marker:none;visibility:visible;display:inline;overflow:visible;enable-background:accumulate;stroke-width:2.28571415"
     d="M 2 0 L 0 1 L 0 4 L 32 4 L 64 4 L 64 1 L 62 0 L 32 0 L 2 0 z "
     id="path6502" />
  <path
     style="fill:#59c3ff;fill-opacity:1;fill-rule:nonzero"
     d="M 0,3 0,6 2,4 Z"
     id="path4298"
     inkscape:connector-curvature="0"
     sodipodi:nodetypes="cccc" />
  <path
     d="M 64,6 62,4 64,3 z"
     id="path3028"
     style="fill:#2a95f6;fill-opacity:1"
     inkscape:connector-curvature="0" />
  <g
     id="g3043"
     inkscape:export-filename="folder.png"
     inkscape:export-xdpi="90"
     inkscape:export-ydpi="90"
     transform="translate(-0.62500009,0.082283)" />
  <g
     id="scalable"
     transform="matrix(1.0385892,0,0,1.0385892,1214.7222,1878.8121)"
     inkscape:label="#g3701"
     style="fill:#ffffff" />
  <path
     inkscape:connector-curvature="0"
     style="fill:#d0e5fc;fill-opacity:1;stroke:none"
     d="M 32,10 C 18.752,10 8,20.752 8,34 c 0,4.296632 1.1447377,8.3226 3.125,11.8125 2.603848,-1.433902 3.627728,-3.874414 3.0625,-3.96875 -0.343766,-1.395452 -2.859814,-3.587901 -3.53125,-7.125 1.03372,-0.349884 3.873637,-0.310634 4.40625,-0.5625 0.610034,-0.288477 2.502038,-2.59715 3.09375,-2.65625 0.591842,-0.05923 1.80317,-0.307932 2.75,-0.78125 0.946897,-0.473513 4.733867,-4.338985 5.5625,-4.8125 0.828502,-0.473444 3.261978,-0.43409 4.03125,-0.375 0.76927,0.05917 1.498637,-0.258642 2.03125,-0.96875 0.532612,-0.710238 6.133577,-4.707382 6.84375,-5.0625 0.710173,-0.355055 2.617798,-2.625 3.59375,-2.625 0.29589,0 0.824675,1.024992 1.59375,2.03125 0.769403,1.00593 0.60185,1.946013 0.1875,2.65625 -1.798181,1.612405 -2.802956,4.806495 -3.3125,7.34375 1.838626,-0.863789 4.338151,0.28344 6.28125,-1.25 0.414346,0.177559 0.375,1.904954 0.375,2.4375 0,0.532547 -0.366781,1.070255 -1.84375,1.59375 -1.582936,0.561053 -5.336392,2.945456 -6.875,5.3125 -1.538806,2.367176 -1.944039,11.309772 -2.0625,12.375 -0.118395,1.065161 -0.15972,2.303039 -0.21875,3.25 -0.182026,1.332512 1.458144,3.033594 2.1875,4.21875 C 48.966635,53.754421 56,44.705349 56,34 56,20.752 45.247999,10 32,10 z m -1.375,17.96875 c -0.711824,-0.01846 -1.161561,0.16989 -1.75,0.46875 -1.352879,1.352814 -2.27796,2.691853 -3.3125,4.78125 2.260906,-1.209143 7.722803,-2.387215 5.875,-5.15625 -0.306491,-0.05181 -0.575225,-0.0876 -0.8125,-0.09375 z"
     id="path3856" />
  <path
     style="fill:#001123;fill-opacity:0.0822898;stroke:none;color:#000000;fill-rule:nonzero;stroke-width:1;marker:none;visibility:visible;display:inline;overflow:visible;enable-background:accumulate"
     d="M 42.96875 16.875 C 41.992798 16.875 40.085173 19.144945 39.375 19.5 C 38.664827 19.855118 33.063862 23.852262 32.53125 24.5625 C 31.998637 25.272608 31.26927 25.59042 30.5 25.53125 C 29.730728 25.47216 27.297252 25.432806 26.46875 25.90625 C 25.640117 26.379765 21.853147 30.245237 20.90625 30.71875 C 19.95942 31.192068 18.748092 31.44077 18.15625 31.5 C 17.564538 31.5591 15.672534 33.867773 15.0625 34.15625 C 14.529887 34.408116 11.68997 34.368866 10.65625 34.71875 C 11.327686 38.255849 13.843734 40.448298 14.1875 41.84375 C 14.723338 41.933181 13.81267 44.112512 11.5 45.5625 C 11.706317 45.980337 11.895823 46.408611 12.125 46.8125 C 14.728848 45.378598 15.752728 42.938086 15.1875 42.84375 C 14.843734 41.448298 12.327686 39.255849 11.65625 35.71875 C 12.68997 35.368866 15.529887 35.408116 16.0625 35.15625 C 16.672534 34.867773 18.564538 32.5591 19.15625 32.5 C 19.748092 32.44077 20.95942 32.192068 21.90625 31.71875 C 22.853147 31.245237 26.640117 27.379765 27.46875 26.90625 C 28.297252 26.432806 30.730728 26.47216 31.5 26.53125 C 32.26927 26.59042 32.998637 26.272608 33.53125 25.5625 C 34.063862 24.852262 39.664827 20.855118 40.375 20.5 C 41.064227 20.155417 42.876293 18.032669 43.875 17.90625 C 43.488681 17.333911 43.159503 16.875 42.96875 16.875 z M 49.4375 17.5625 C 53.490205 21.860392 56 27.631004 56 34 C 56 44.621577 49.068148 53.592565 39.5 56.75 C 39.786407 57.142435 40.077447 57.512584 40.28125 57.84375 C 49.966635 54.754421 57 45.705349 57 35 C 57 28.120996 54.079554 21.939732 49.4375 17.5625 z M 47.71875 27.65625 C 46.210357 28.846632 44.35955 28.439421 42.75 28.59375 C 42.63831 29.035871 42.521166 29.489638 42.4375 29.90625 C 44.076068 29.136448 46.235758 29.958707 48.0625 29.0625 C 48.036361 28.418302 47.974077 27.765665 47.71875 27.65625 z M 31.8125 29 C 31.95965 30.530832 29.657218 31.492332 27.625 32.3125 C 27.269632 32.889111 26.921769 33.493157 26.5625 34.21875 C 28.823406 33.009607 34.285303 31.831535 32.4375 29.0625 C 32.202151 29.022716 32.006174 29.014725 31.8125 29 z "
     id="circle22" />
</svg>

<svg xmlns="http://www.w3.org/2000/svg" viewBox="0 0 64 64"><g color="#000"><path d="m0 4v30 28l2 2h30 30l2-2v-28-30h-32-32" fill="#0f77ec"/><path d="m2 0l-2 1v3h32 32v-3l-2-1h-30-30" fill="#43b1ff"/></g><path d="m0 3v3l2-2" fill="#59c3ff"/><path d="m64 6l-2-2 2-1z" fill="#2a95f6"/><path d="m32 10c-13.248 0-24 10.752-24 24 0 4.297 1.145 8.323 3.125 11.813 2.604-1.434 3.628-3.874 3.063-3.969-.344-1.395-2.86-3.588-3.531-7.125 1.034-.35 3.874-.311 4.406-.563.61-.288 2.502-2.597 3.094-2.656.592-.059 1.803-.308 2.75-.781.947-.474 4.734-4.339 5.563-4.813.829-.473 3.262-.434 4.03-.375.769.059 1.499-.259 2.031-.969.533-.71 6.134-4.707 6.844-5.063.71-.355 2.618-2.625 3.594-2.625.296 0 .825 1.025 1.594 2.031.769 1.01.602 1.946.188 2.656-1.798 1.612-2.803 4.806-3.313 7.344 1.839-.864 4.338.283 6.281-1.25.414.178.375 1.905.375 2.438 0 .533-.367 1.07-1.844 1.594-1.583.561-5.336 2.945-6.875 5.313-1.539 2.367-1.944 11.31-2.063 12.375-.118 1.065-.16 2.303-.219 3.25-.182 1.333 1.458 3.034 2.188 4.219 9.685-3.089 16.719-12.138 16.719-22.844 0-13.248-10.752-24-24-24m-1.375 17.969c-.712-.018-1.162.17-1.75.469-1.353 1.353-2.278 2.692-3.313 4.781 2.261-1.209 7.723-2.387 5.875-5.156-.306-.052-.575-.088-.813-.094" fill="#d0e5fc"/><path d="m42.969 16.875c-.976 0-2.884 2.27-3.594 2.625-.71.355-6.311 4.352-6.844 5.063-.533.71-1.262 1.028-2.031.969-.769-.059-3.203-.098-4.03.375-.829.474-4.616 4.339-5.563 4.813-.947.473-2.158.722-2.75.781-.592.059-2.484 2.368-3.094 2.656-.533.252-3.373.213-4.406.563.671 3.537 3.187 5.73 3.531 7.125.536.089-.375 2.269-2.688 3.719.206.418.396.846.625 1.25 2.604-1.434 3.628-3.874 3.063-3.969-.344-1.395-2.86-3.588-3.531-7.125 1.034-.35 3.874-.311 4.406-.563.61-.288 2.502-2.597 3.094-2.656.592-.059 1.803-.308 2.75-.781.947-.474 4.734-4.339 5.563-4.813.829-.473 3.262-.434 4.03-.375.769.059 1.499-.259 2.031-.969.533-.71 6.134-4.707 6.844-5.063.689-.345 2.501-2.467 3.5-2.594-.386-.572-.715-1.031-.906-1.031m6.469.688c4.053 4.298 6.563 10.07 6.563 16.438 0 10.622-6.932 19.593-16.5 22.75.286.392.577.763.781 1.094 9.685-3.089 16.719-12.138 16.719-22.844 0-6.879-2.92-13.06-7.563-17.438m-1.719 10.09c-1.508 1.19-3.359.783-4.969.938-.112.442-.229.896-.313 1.313 1.639-.77 3.798.052 5.625-.844-.026-.644-.088-1.297-.344-1.406m-15.906 1.344c.147 1.531-2.155 2.492-4.188 3.313-.355.577-.703 1.181-1.063 1.906 2.261-1.209 7.723-2.387 5.875-5.156-.235-.04-.431-.048-.625-.063" fill="#001123" fill-opacity=".082" color="#000"/></svg>
